src/assets/icons/icon_favorite_false.svg

<svg width="24" height="24" viewBox="0 0 24 24" fill="none" xmlns="http://www.w3.org/2000/svg">
<path d="M15.9004 4.125C18.6664 4.12521 20.8821 6.31207 20.9746 9.11328V9.2998C20.9746 10.8036 20.3933 12.0964 19.4395 12.9707L19.0752 13.3047V13.3652C18.9359 13.4841 18.7674 13.6295 18.5771 13.7949C18.0708 14.2352 17.3934 14.8318 16.6562 15.4814C15.1845 16.7786 13.4749 18.2893 12.3799 19.2354C12.1971 19.3877 11.9025 19.3877 11.7197 19.2354C10.6215 18.2867 8.88262 16.7712 7.40234 15.4775C6.65916 14.828 5.98192 14.2346 5.48438 13.7979C5.2994 13.6355 5.14605 13.5008 5.02539 13.3945V13.334L4.69531 13.0049C3.69442 12.004 3.125 10.6851 3.125 9.2998V9.11621C3.21608 6.43578 5.51045 4.22461 8.2002 4.22461C8.57189 4.22466 9.08881 4.35669 9.61621 4.64062C10.1106 4.90685 10.5364 5.26699 10.8164 5.6582C11.3478 6.73169 12.9123 6.71276 13.4082 5.60254C13.6331 5.20377 14.0406 4.82781 14.5479 4.54492C15.0746 4.25113 15.5872 4.125 15.9004 4.125Z" stroke="#94A3B8" stroke-width="2.25"/>
</svg>

<svg xmlns="http://www.w3.org/2000/svg" fill="none" viewBox="0 0 24 24"><path stroke="#94a3b8" stroke-width="2.25" d="M15.9 4.125c2.766 0 4.982 2.187 5.075 4.988V9.3c0 1.504-.582 2.796-1.536 3.67l-.364.335v.06q-.211.18-.498.43a437 437 0 0 0-1.92 1.686c-1.473 1.298-3.182 2.808-4.277 3.754a.534.534 0 0 1-.66 0 1159 1159 0 0 1-6.695-5.84v-.061l-.33-.33c-1-1-1.57-2.319-1.57-3.704v-.184C3.216 6.436 5.51 4.225 8.2 4.225c.372 0 .889.132 1.416.416.495.266.92.626 1.2 1.017.532 1.074 2.096 1.055 2.592-.055.225-.4.633-.775 1.14-1.058.527-.294 1.04-.42 1.352-.42Z"/></svg>
